website/public/Images/logos/intel.svg

<svg width="90" height="60" viewBox="0 0 90 60" fill="none" xmlns="http://www.w3.org/2000/svg">
<g clip-path="url(#clip0)">
<path d="M26.5163 25.4498V40.1426H21.8899V21.6744L31.4412 21.684C35.498 21.684 36.88 24.5762 36.88 27.2033V40.1426H32.2619V27.2275C32.2619 26.127 31.6985 25.4498 30.3393 25.4498H26.5163V25.4498ZM57.9754 25.2292C56.3941 25.2292 55.1703 26.051 54.6591 27.1667C54.3562 27.8365 54.2521 28.3499 54.2165 29.17H61.334C61.2427 27.1667 60.344 25.2292 57.9754 25.2292ZM54.2165 32.3532C54.2165 34.7455 55.6875 36.5063 58.3139 36.5063C60.3574 36.5063 61.373 35.9338 62.5545 34.7455L65.412 37.5037C63.5824 39.3298 61.6625 40.4387 58.28 40.4387C53.8512 40.4387 49.6129 37.9974 49.6129 30.8824C49.6129 24.803 53.3133 21.3615 58.1758 21.3615C63.1046 21.3615 65.9521 25.3907 65.9521 30.6685V32.3532H54.2165ZM45.7075 40.1195C41.9385 40.1195 40.3394 37.4672 40.3394 34.8474V16.6427H44.9586V21.6744H48.4408V25.4498H44.9586V34.5547C44.9586 35.6276 45.4597 36.2231 46.5616 36.2231H48.4408V40.1195H45.7075ZM17.7735 19.1223H13.1153V14.6489H17.7735V19.1223ZM17.7852 40.3368C14.2969 39.998 13.1103 37.8589 13.1103 35.3906L13.1154 21.6744H17.7853V40.3368H17.7852ZM73.3041 39.9422C69.823 39.6028 68.642 37.4672 68.642 35.0022V14.0123H73.3041V39.9422ZM89.6021 17.0457C85.3771 -3.77875 45.3918 -5.09706 19.6187 10.7649V12.5161C45.3656 -0.860681 81.881 -0.781877 85.2079 18.3984C86.3209 24.7406 82.7858 31.3529 76.4722 35.1536V40.1263C84.0714 37.3157 91.8649 28.2018 89.6021 17.0457ZM42.7526 53.4805C24.9651 55.1428 6.42932 52.5326 3.83576 38.4809C2.56626 31.5539 5.68767 24.2109 9.82858 19.6497V17.2107C2.37417 23.8191 -1.67153 32.1855 0.657559 42.0711C3.6303 54.7476 19.5386 61.9313 43.82 59.5458C53.4269 58.5978 66.0011 55.4749 74.7428 50.6244V43.7334C66.8107 48.5084 53.6847 52.4572 42.7526 53.4805Z" fill="#3B4473"/>
<path d="M78.6928 15.4055C78.6928 15.1769 78.5608 15.1043 78.259 15.1043H77.9678V15.7511C78.0101 15.7511 78.2217 15.759 78.259 15.759C78.5608 15.759 78.6928 15.6571 78.6928 15.4432V15.4055V15.4055ZM79.1471 17.0092H78.8019C78.7707 17.0092 78.7434 16.9895 78.7301 16.963L78.259 16.1558C78.2506 16.1395 78.21 16.1198 78.1939 16.1198H77.9823V16.9202C77.9823 16.963 77.9533 17.0092 77.8976 17.0092H77.5853C77.5463 17.0092 77.5073 16.963 77.5073 16.9202V14.8955C77.5073 14.7784 77.5524 14.7294 77.6504 14.7142C77.7607 14.6996 78.0602 14.6895 78.2217 14.6895C78.7952 14.6895 79.1421 14.8606 79.1421 15.4055V15.4432C79.1421 15.7803 78.9762 15.9582 78.7189 16.0455L79.2072 16.8803C79.2104 16.8971 79.2217 16.9202 79.2217 16.9399C79.2217 16.9726 79.2022 17.0092 79.1471 17.0092L79.1471 17.0092ZM78.3275 14.3241C77.4778 14.3241 76.7907 15.0334 76.7907 15.8873C76.7907 16.7423 77.4778 17.4403 78.3275 17.4403C79.1727 17.4403 79.8665 16.7423 79.8665 15.8873C79.8665 15.0334 79.1727 14.3241 78.3275 14.3241ZM78.3275 17.7623C77.2952 17.7623 76.4717 16.9202 76.4717 15.8873C76.4717 14.8561 77.2952 14.0117 78.3275 14.0117C79.3487 14.0117 80.1878 14.8561 80.1878 15.8873C80.1878 16.9202 79.3487 17.7623 78.3275 17.7623Z" fill="#3B4473"/>
</g>
<defs>
<clipPath id="clip0">
<rect width="90" height="60" fill="white"/>
</clipPath>
</defs>
</svg>

<svg xmlns="http://www.w3.org/2000/svg" width="90" height="60" fill="none" xmlns:v="https://vecta.io/nano"><g clip-path="url(#A)" fill="#3b4473"><path d="M26.516 25.45v14.693H21.89V21.674l9.551.01c4.057 0 5.439 2.892 5.439 5.519v12.939h-4.618V27.228c0-1.101-.563-1.778-1.923-1.778h-3.823 0zm31.459-.221c-1.581 0-2.805.822-3.316 1.938-.303.67-.407 1.183-.443 2.003h7.118c-.091-2.003-.99-3.941-3.359-3.941zm-3.759 7.124c0 2.392 1.471 4.153 4.097 4.153 2.044 0 3.059-.573 4.241-1.761l2.858 2.758c-1.83 1.826-3.75 2.935-7.132 2.935-4.429 0-8.667-2.441-8.667-9.556 0-6.079 3.7-9.521 8.563-9.521 4.929 0 7.776 4.029 7.776 9.307v1.685H54.217zm-8.509 7.766c-3.769 0-5.368-2.652-5.368-5.272V16.643h4.619v5.032h3.482v3.775h-3.482v9.105c0 1.073.501 1.668 1.603 1.668h1.879v3.896h-2.733zM17.774 19.122h-4.658v-4.473h4.658v4.473zm.012 21.214c-3.488-.339-4.675-2.478-4.675-4.946l.005-13.716h4.67v18.662h0zm55.519-.395c-3.481-.339-4.662-2.475-4.662-4.94v-20.99h4.662v25.93zm16.298-22.896C85.378-3.779 45.393-5.098 19.62 10.764v1.751C45.366-.861 81.881-.782 85.208 18.398c1.113 6.342-2.422 12.955-8.736 16.755v4.973c7.599-2.811 15.393-11.925 13.13-23.081zm-46.85 36.436c-17.787 1.662-36.323-.948-38.917-15-1.269-6.927 1.852-14.27 5.993-18.831v-2.439c-7.454 6.608-11.5 14.975-9.171 24.86C3.63 54.748 19.539 61.931 43.82 59.546c9.607-.948 22.181-4.071 30.923-8.921v-6.891c-7.932 4.775-21.058 8.724-31.99 9.747zm35.94-38.075c0-.229-.132-.301-.434-.301h-.291v.647l.291.008c.302 0 .434-.102.434-.316v-.038h0zm.454 1.604h-.345c-.031 0-.059-.02-.072-.046l-.471-.807c-.008-.016-.049-.036-.065-.036h-.212v.8c0 .043-.029.089-.085.089h-.312c-.039 0-.078-.046-.078-.089v-2.025c0-.117.045-.166.143-.181a6.3 6.3 0 0 1 .571-.025c.573 0 .92.171.92.716v.038a.57.57 0 0 1-.423.602l.488.835c.003.017.014.04.014.06 0 .033-.019.069-.075.069h0zm-.82-2.685c-.85 0-1.537.709-1.537 1.563s.687 1.553 1.537 1.553 1.539-.698 1.539-1.553-.694-1.563-1.539-1.563zm0 3.438c-1.032 0-1.856-.842-1.856-1.875s.823-1.876 1.856-1.876c1.021 0 1.86.844 1.86 1.876s-.839 1.875-1.86 1.875z"/></g><defs><clipPath id="A"><path fill="#fff" d="M0 0h90v60H0z"/></clipPath></defs></svg>
